X:195
T:Les Bouquets Waltzes. Le4.195
%
N:The meaning of "Introduction" and "Solo Flute" at the begining
N:is unclear. It opens with pairs of notes which it isn't
N:possible to play on a flute.
N:1 & 2 endings added at bar 22 to rationalise the notation.
N:mf added at bar 23 to cancel the FF in previous bar.
N:1 & 2 endings added and note lengths altered at bar 47 to rationalise the notation.
N:1 & 2 endings added and note lengths altered at bar 55 to rationalise the notation.
N:Dots added to crotchets in bars 57, 61 and 62
N:B# in bar 109 left natural and the d sharpened instead - consistant with rest of the music.
N:Second B in bar 113 may be c.
%
M:2/4
L:1/16
%%barnumbers 1
B:L.Leadley MS#4 c1850
Z:vmp. Peter Dunk 2016
Q:"Andante   "1/4=80
K:C
[c'e]|[c'e]z6[eB]|[eB]z6[BD]|H[BD]8||"_p".f.d'.b.g .f.d.B.G|[FG,]4 z4|EcGc EcGc|
%7
EcGc [EG,]2 [EG,]2|EcGc EcGc|EcGc EcGc|DBFB DBFB|EcGc EcGc|EcGc EcGc|
%13
EcGc DBFB|EcGc [FG,]2|:f2|(g^fag) (c'bd'c')|\
c'2>g2 agec|AB/c/ d/e/f/g/ ^g/a/b/a/ g/f/e/d/|
%18
(c4 B)cef|{^f/}g4 {(3Bcd}c4|c'2c'2 bafd|\
e2e/f/g/a/ g>B g>B|1d4 c2:|2!ff!H[g8B8]||
%
M:3/4
L:1/8
Q:1/4=140
%23
"No.1 Waltz"!mf!|:g2|g2z2c'2|c'2z2e2|e2z2g2|g2z2 g>g|\
a4(3gfg |d2z2 g>g|a4(3gfg |e2z2g2|
%31
g2z2c'2|c'2z2e2|e2z2g2|g2z2g>g|e'4 (3d'c'b|
%36
c'2e2a2|g2B2d2|c4::c2|Bcdefg|abc'd' e'2|
%41
abc'd' e'2|d'2z2c'2|a4 g2|^f4g2|=f4d2|cBcedB|1c4:|2c4c2|]
%48
M:3/4
"No.2 Waltz""_p"|:e>f|g4^f>a|g4^f>a|g2!>(!c'4!>)!-|c'bagfe|d4^c>e|
%53
d4^c>e|dz !>(!g2!>)! de|1=c4:|2=c4!f!|:c2|dcAcfa|^f>g "NB"c'3b|
%58
!>(!ba!>)!^gc'd'e'|!>(!e'4!>)! d'c'|!>(!c'4!>)! ba|\
" NB"!>(!(a3!>)! g)ec|" NB"(!>(!a3!>)! g)fd|1c4:|2c3||
%64
M:3/4
"  No.3 Waltz"|:!f!c=Bc|(agf)(.d'.c'.=b)|.d'.c'.b(c=Bc)|\
(agf).d'.c'.=b|.d'.c'.b(a^ga)|.c'._b.g(g^fg)|
%69
(bg=f)(fef)|(agd)(gA=B)|1c2z:|2c4z|:c|c4 B>e|E4 B>e|!p!.e2.f2.g2|
%75
{A}a2 (fd) c2|!f!c'4b>d'|e6|e>d' c'2ec'|1f3z:|2c2 z2||
%80
M:3/4
"    No.4 Waltz"|:ef|"tr"g6-|g(c'bc') e2|dg(^fg) G2|e2c4|
%85
g6-|g(c'bc') e2|dg(^fg) (Ge)|1c2z2:|2c2z2||
%88
|:!f!cd|e6|.e.a(^ga) !>(!c'2!>)!|c'(d^cd) d2-|dg(^fg) !f!b2|
%92
g6-|.g.c'(bc') e2-|e.g(^f.g) (Ge)|1c2z2:|2c2z2||
%96
M:3/4
"No.5 Waltz"c2|:.c2 .e.e .^d2|.e2.G2.e2|.c2 .e.e .^d2|.e2.G2.c2|
%100
.B2.a.a .g2|^f2g2=f2|.d2 .g.g f2|e2f2B2:|
%104
"Coda"e6|e2B2c2|G6|e2B2c2|g6|f2B2"NB"^d2
%110
|a6-|a2B2g2|e6-|e2 B2"NB"B2|G6|e2B2c2|
%116
g6|f2^c2d2|(c'6|a2)B2g2|e2 (cd)(^de)|!>(!e4!>)!f2|
%122
a2 (de)(ef)|!>(!^d4!>)!e2|c2(cd)(^de)|\
!>(!e4!>)!f2|a2 (de)(ef)|!>(!^d4!>)!e2|
%128
"_p"e2d2c2|(^cdefg^g)|f3 e d2|!>(!B4!>)!c2|\
!f!e'3 c'ge|cgec G2|
%134
_A4 GD|!ff!C2 ee ^d2|e2.G2.e2|.c2 .e.e .^d2|\
.e2.G2.c2|.B2 .a.a !>(!.g2!>)!|
%140
.^f2g2=f2|.d2 .g.g .f2|.e2.f2.d2|\
"Fine".c2 .e.e ^d2|.e2.G2.e2|.c2 .e.e ^d2|
%146
.e2.G2.c2|.B2 .a.a .g2|^f2g2=f2|d2 .g.g f2|\
.e2.f2.d2|"_p".c2 .e.e .^d2|
%152
.e2.G2.e2|.c2 .e.e .^d2|.e2.G2.e2|c2(f2^d2)|e2G2e2|
%157
"_pp"c2 (D2^D2)|E2G,2E2|"_ppp"C2z2z2|C2z2z2|C2z2z2|]

